storage/app/icons/phosphoricons/fill/list-plus-fill.svg

<svg xmlns="http://www.w3.org/2000/svg" fill="currentColor" viewBox="0 0 256 256"><path d="M208 32H48a16 16 0 0 0-16 16v160a16 16 0 0 0 16 16h160a16 16 0 0 0 16-16V48a16 16 0 0 0-16-16M64 72h128a8 8 0 0 1 0 16H64a8 8 0 0 1 0-16m56 112H64a8 8 0 0 1 0-16h56a8 8 0 0 1 0 16m16-48H64a8 8 0 0 1 0-16h72a8 8 0 0 1 0 16m64 32h-16v16a8 8 0 0 1-16 0v-16h-16a8 8 0 0 1 0-16h16v-16a8 8 0 0 1 16 0v16h16a8 8 0 0 1 0 16"/></svg>

<svg xmlns="http://www.w3.org/2000/svg" viewBox="0 0 256 256" fill="currentColor"><path d="M208,32H48A16,16,0,0,0,32,48V208a16,16,0,0,0,16,16H208a16,16,0,0,0,16-16V48A16,16,0,0,0,208,32ZM64,72H192a8,8,0,0,1,0,16H64a8,8,0,0,1,0-16Zm56,112H64a8,8,0,0,1,0-16h56a8,8,0,0,1,0,16Zm16-48H64a8,8,0,0,1,0-16h72a8,8,0,0,1,0,16Zm64,32H184v16a8,8,0,0,1-16,0V168H152a8,8,0,0,1,0-16h16V136a8,8,0,0,1,16,0v16h16a8,8,0,0,1,0,16Z"/></svg>
